brandFactory_export/1.Light/Cohete_1Light.svg

<?xml version="1.0" encoding="UTF-8"?>
<svg width="24px" height="24px" viewBox="0 0 24 24" version="1.1" xmlns="http://www.w3.org/2000/svg" xmlns:xlink="http://www.w3.org/1999/xlink">
    <title>1.Light/Cohete_1Light</title>
    <g id="Symbols" stroke="none" stroke-width="1" fill="none" fill-rule="evenodd">
        <g id="1.Light/Cohete_1Light" fill="#5CB615" fill-rule="nonzero">
            <path d="M14.907563,7.25042017 C14.0470588,7.25042017 13.6806723,7.62016807 13.6806723,8.48739496 C13.6806723,9.35462185 14.0470588,9.72436975 14.907563,9.72436975 C15.7680672,9.72436975 16.1344538,9.35462185 16.1344538,8.48739496 C16.1344538,7.62016807 15.7714286,7.25042017 14.907563,7.25042017 Z M14.907563,10.7058824 C13.5058824,10.7058824 12.702521,9.89579832 12.702521,8.48739496 C12.702521,7.07563025 13.5058824,6.26890756 14.907563,6.26890756 C16.3092437,6.26890756 17.1159664,7.0789916 17.1159664,8.48739496 C17.1159664,9.89579832 16.312605,10.7058824 14.907563,10.7058824 Z M2.95798319,18.594958 C2.2789916,19.2806723 1.17310924,20.6722689 1.00168067,22.6184874 C3.01848739,22.4336134 4.45042017,21.2033613 5.00168067,20.6521008 C5.70756303,19.9394958 5.70756303,19.307563 5.00168067,18.594958 C4.6487395,18.2420168 4.31596639,18.0638655 3.97983193,18.0638655 C3.64369748,18.0605042 3.31092437,18.2386555 2.95798319,18.594958 Z M0.490756303,23.6235294 C0.221848739,23.6235294 0,23.405042 0,23.1327731 L0,23.1294118 C0,20.5613445 1.41848739,18.7495798 2.26554622,17.8957983 C3.35462185,16.8 4.60168067,16.8 5.6907563,17.8957983 C6.77983193,18.9915966 6.77983193,20.2487395 5.6907563,21.3445378 C5.01176471,22.0302521 3.1394958,23.6235294 0.490756303,23.6235294 Z M1.91932773,8.07058824 L1.85882353,8.15798319 C1.95630252,8.38319328 3.06218487,8.85714286 3.79831933,9.17310924 C4.27226891,9.37142857 4.75294118,9.57983193 5.21680672,9.80840336 C6.03697479,8.44369748 6.96806723,7.14957983 8.00336134,5.9394958 L8.09411765,5.83529412 C7.4487395,5.42857143 6.68907563,5.24369748 5.92941176,5.30420168 C4.57142857,5.44201681 3.22016807,6.37983193 1.91932773,8.07058824 Z M9.39831933,5.84537815 L8.7394958,6.58823529 C7.52941176,8.00336134 6.33613445,9.72436975 5.54957983,11.189916 L5.13613445,12.0235294 C4.53445378,13.3647059 4.6789916,13.7042017 4.6789916,13.707563 L9.97647059,19.0285714 C9.98319328,19.0285714 10.3529412,19.1697479 11.6537815,18.5613445 L12.5042017,18.1445378 C13.9394958,17.3815126 15.6033613,16.2117647 17.0756303,14.9378151 L17.8352941,14.2789916 C18.0336134,14.1042017 18.2117647,13.9260504 18.4134454,13.7243697 C19.8084034,12.3226891 20.7697479,10.5747899 21.4218487,8.83361345 L14.8470588,2.21176471 C13.1092437,2.87058824 11.3579832,3.84537815 9.95294118,5.26386555 C9.77478992,5.43865546 9.57310924,5.64369748 9.39831933,5.84537815 L9.39831933,5.84537815 Z M21.8756303,1.02184874 C20.8470588,0.904201681 18.4470588,1.0487395 15.8689076,1.85882353 L21.7848739,7.80168067 C22.594958,5.17983193 22.7327731,2.74621849 22.6084034,1.75462185 C22.5579832,1.37478992 22.2588235,1.07226891 21.8756303,1.02184874 Z M18.3798319,17.912605 C18.4571429,17.1058824 18.2453782,16.2957983 17.7882353,15.6302521 L17.7210084,15.6907563 C16.5109244,16.7394958 15.2168067,17.6840336 13.8487395,18.5142857 C14.1042017,19.0252101 14.3294118,19.5563025 14.5445378,20.0739496 C14.8537815,20.8134454 15.3210084,21.9294118 15.5865546,22.0302521 C17.3277311,20.6453782 18.2521008,19.2840336 18.3798319,17.912605 Z M3.41512605,10.0806723 C2.05378151,9.49915966 1.0789916,9.08571429 0.900840336,8.34957983 C0.850420168,8.14453782 0.860504202,7.80840336 1.15630252,7.45546218 C2.62184874,5.54621849 4.20840336,4.49411765 5.85210084,4.33613445 C6.88067227,4.24201681 7.91260504,4.51092437 8.76302521,5.09579832 C8.92773109,4.91428571 9.10252101,4.73277311 9.2605042,4.57142857 C13.2336134,0.571428571 19.6672269,-0.218487395 21.9932773,0.0470588235 C22.8235294,0.154621849 23.4722689,0.806722689 23.5798319,1.63361345 C23.7210084,2.80336134 23.5596639,5.62352941 22.5613445,8.58487395 L22.5915966,8.61512605 L22.5310924,8.67563025 C21.8386555,10.692437 20.7630252,12.7630252 19.112605,14.4235294 C18.9109244,14.6252101 18.7327731,14.8033613 18.5344538,14.9815126 C19.1663866,15.8554622 19.4588235,16.9310924 19.3579832,18.0067227 C19.2033613,19.6605042 18.1512605,21.2537815 16.2352941,22.7428571 C16.0537815,22.907563 15.8184874,23.0016807 15.5764706,23.005042 C15.5058824,23.005042 15.4319328,22.994958 15.3613445,22.9781513 C14.6319328,22.8033613 14.2184874,21.8151261 13.6470588,20.4470588 C13.4453782,19.9563025 13.2302521,19.4722689 13.0016807,18.994958 L12.9613445,19.0184874 L12.0806723,19.4487395 C11.2537815,19.8352941 10.6084034,20.0268908 10.1210084,20.0268908 C9.76806723,20.0268908 9.49243697,19.9260504 9.2907563,19.7243697 L3.98319328,14.3966387 C3.51260504,13.9596639 3.59327731,13.0689076 4.25210084,11.6033613 L4.6789916,10.7428571 L4.72268908,10.6655462 C4.29579832,10.4537815 3.85882353,10.2588235 3.41512605,10.0806723 Z" id="Cohete_1Light"></path>
        </g>
    </g>
</svg>

<svg width="24" height="24" viewBox="0 0 24 24" xmlns="http://www.w3.org/2000/svg"><path d="M14.908 7.25c-.86 0-1.227.37-1.227 1.237 0 .868.366 1.237 1.227 1.237.86 0 1.226-.37 1.226-1.237 0-.867-.363-1.237-1.226-1.237zm0 3.456c-1.402 0-2.205-.81-2.205-2.219 0-1.411.803-2.218 2.205-2.218 1.401 0 2.208.81 2.208 2.218 0 1.409-.803 2.219-2.208 2.219zm-11.95 7.889c-.679.686-1.785 2.077-1.956 4.023 2.016-.184 3.448-1.415 4-1.966.706-.713.706-1.344 0-2.057-.353-.353-.686-.531-1.022-.531-.336-.003-.67.175-1.022.531zM.491 23.624A.491.491 0 010 23.133v-.004c0-2.568 1.418-4.38 2.266-5.233 1.089-1.096 2.336-1.096 3.425 0s1.089 2.353 0 3.449c-.68.685-2.552 2.279-5.2 2.279zM1.919 8.07l-.06.087c.097.225 1.203.7 1.94 1.015.473.198.954.407 1.418.635A28.653 28.653 0 018.003 5.94l.091-.104a3.533 3.533 0 00-2.165-.53C4.571 5.441 3.22 6.38 1.92 8.07zM9.4 5.845l-.66.743C7.53 8.003 6.336 9.724 5.55 11.19l-.413.834c-.602 1.34-.457 1.68-.457 1.684l5.297 5.32c.007 0 .377.142 1.678-.467l.85-.416c1.435-.763 3.1-1.933 4.572-3.207l.76-.659c.198-.175.376-.353.577-.555 1.395-1.401 2.357-3.15 3.009-4.89l-6.575-6.622c-1.738.659-3.489 1.633-4.894 3.052-.178.175-.38.38-.555.581zm12.477-4.823c-1.029-.118-3.429.027-6.007.837l5.916 5.943c.81-2.622.948-5.056.823-6.047a.852.852 0 00-.732-.733zm-3.496 16.89a3.456 3.456 0 00-.592-2.282l-.067.06a28.445 28.445 0 01-3.872 2.824c.255.511.48 1.042.696 1.56.309.74.776 1.855 1.042 1.956 1.74-1.385 2.665-2.746 2.793-4.117zM3.415 10.082C2.054 9.499 1.08 9.086.901 8.35c-.05-.205-.04-.542.255-.895 1.466-1.909 3.052-2.96 4.696-3.119a4.43 4.43 0 012.911.76c.165-.182.34-.363.498-.525 3.973-4 10.406-4.79 12.732-4.524.83.108 1.48.76 1.587 1.587.141 1.17-.02 3.99-1.019 6.95l.03.031-.06.06c-.692 2.017-1.768 4.088-3.418 5.749-.202.201-.38.38-.579.558.632.873.925 1.95.824 3.025-.155 1.654-1.207 3.247-3.123 4.736a1.005 1.005 0 01-.659.262.943.943 0 01-.215-.027c-.73-.175-1.143-1.163-1.714-2.53a28.03 28.03 0 00-.645-1.453l-.04.023-.881.43c-.827.387-1.473.579-1.96.579-.353 0-.629-.1-.83-.303l-5.308-5.327c-.47-.437-.39-1.328.27-2.794l.426-.86.044-.077a18.223 18.223 0 00-1.308-.585z" fill="#5CB615" fill-rule="nonzero"/></svg>
